X:2286
T:Thurot 
C:P.Cain (Phil the Desert), West Baldwin 
C:Traditional
O:Isle of Man
Z:Clague collection
B:Kiaull Vannin #286 
M:2/4 
L:1/8 
Q:120 
K:G 
G/A/|BBGB|AGE E/F/|GE DD|D3 B/c/|ddde|dB AG|AA BG|A3 B/c/| 
ddde|dB AG|AABd|d3 e|dB AB|AGE E/F/|GE DD|D3|| 

